icons/circle/48/frescobaldi.svg

<svg xmlns="http://www.w3.org/2000/svg" viewBox="0 0 48 48">
  <defs>
    <linearGradient id="a" x1="1" x2="47" gradientUnits="userSpaceOnUse" gradientTransform="rotate(-90 24 24)">
      <stop stop-color="#0cbe82"/>
      <stop offset="1" stop-color="#0dd18f"/>
    </linearGradient>
    <radialGradient id="b" gradientUnits="userSpaceOnUse" cx="21" cy="8" r="15" gradientTransform="matrix(.2634 0 0 .2634 1.242 4.666)">
      <stop stop-color="#fe1058"/>
      <stop offset="1" stop-color="#fe4c82"/>
    </radialGradient>
    <radialGradient id="c" gradientUnits="userSpaceOnUse" cx="14" cy="10" r="15.535" gradientTransform="rotate(-23.001 15.427 -2.933) scale(.26204)">
      <stop stop-color="#ffabcb"/>
      <stop offset="1" stop-color="#ff619c"/>
    </radialGradient>
    <radialGradient id="d" cx="24.5" cy="24.5" r="3.5" gradientUnits="userSpaceOnUse" gradientTransform="matrix(.64508 0 0 .64508 -9.031 -9.031)">
      <stop stop-color="#f0e598"/>
      <stop offset="1" stop-color="#fce11a"/>
    </radialGradient>
  </defs>
  <path d="M36.31 5c5.859 4.062 9.688 10.831 9.688 18.5 0 12.426-10.07 22.5-22.5 22.5-7.669 0-14.438-3.828-18.5-9.688a23.24 23.24 0 0 0 3.781 4.969 22.923 22.923 0 0 0 15.469 5.969c12.703 0 23-10.298 23-23a22.92 22.92 0 0 0-5.969-15.469A23.216 23.216 0 0 0 36.31 5zm4.969 3.781A22.911 22.911 0 0 1 47.498 24.5c0 12.703-10.297 23-23 23a22.909 22.909 0 0 1-15.719-6.219C12.939 45.425 18.662 48 24.998 48c12.703 0 23-10.298 23-23 0-6.335-2.575-12.06-6.719-16.219z" opacity=".05"/>
  <path d="M41.28 8.781a22.923 22.923 0 0 1 5.969 15.469c0 12.703-10.297 23-23 23A22.92 22.92 0 0 1 8.78 41.281 22.911 22.911 0 0 0 24.499 47.5c12.703 0 23-10.298 23-23A22.909 22.909 0 0 0 41.28 8.781z" opacity=".1"/>
  <path d="M31.25 2.375C39.865 5.529 46 13.792 46 23.505c0 12.426-10.07 22.5-22.5 22.5-9.708 0-17.971-6.135-21.12-14.75a23 23 0 0 0 44.875-7 23 23 0 0 0-16-21.875z" opacity=".2"/>
  <path d="M24 1c12.703 0 23 10.297 23 23S36.703 47 24 47 1 36.703 1 24 11.297 1 24 1z" fill="url(#a)"/>
  <path d="M40.03 7.531A22.922 22.922 0 0 1 45.999 23c0 12.703-10.297 23-23 23A22.92 22.92 0 0 1 7.53 40.031C11.708 44.322 17.54 47 23.999 47c12.703 0 23-10.298 23-23 0-6.462-2.677-12.291-6.969-16.469z" opacity=".1"/>
  <path d="M25 10l-2.094 4.906L19 11l.281 5L14 14l2 5.281L11 19l3.875 3.875L10 24.938l4.906 2.156L11 31l5-.281L14 36l5.281-2L19 39l3.906-3.906L25 40l2.063-4.781L30.594 39l-.063-5.063L36 35.999l-2-5.281 5 .281-3.875-3.875L40 25.061l-4.906-2.156L39 18.999l-5 .281 2-5.281-5.281 2 .281-5-3.906 3.906L25 9.999" fill-opacity=".098"/>
  <g>
    <path d="M8.354 10.724l-1.58-1.693-1.693 1.693.141-2.399-2.399.141 1.693-1.693L2.823 5.08l2.399.141-.141-2.399 1.693 1.693 1.693-1.693-.141 2.399 2.399-.141-1.693 1.693 1.693 1.693-2.399-.141z" fill="url(#b)" transform="matrix(3.5433 0 0 3.5433 .004 0)"/>
    <path d="M26.504 13.5l-2.502 2.502-1.095-1.095L22 17l-2.717-1-.94-.375.157 2.874-2.874-.156.376.939L17 22l-2.126.876 1.123 1.123-2.47 2.47 1.375.623 2.094.907-.595 1.627 2.094-.124-.28 4.907 1.063-.407 2.718-1 .312.688 1.686-1.687 3.03 3.25.032-.033.939-2.218 1.53.564-.032-4.064 4.157.251-.656-1.75 2.126-.875-3.125-3.126 1.687-1.686-.688-.312 1-2.718.407-1.063-4.908.28.125-2.094-1.627.595-.907-2.094-.595-1.406z" fill-opacity=".098"/>
    <path d="M9.878 9.878L7.62 9.031l-.847 1.976-.847-1.976-2.258.847.847-2.258-1.976-.861 1.976-.832-.847-2.258 2.258.847.847-1.976.847 1.976 2.258-.847-.847 2.258 1.976.861-1.976.832z" fill="url(#c)" transform="matrix(3.5433 0 0 3.5433 .004 0)"/>
    <path d="M32.503 24.498a8 8 0 0 1-16.002 0 8 8 0 1 1 16.002 0z" fill-opacity=".098"/>
    <path d="M9.03 6.773a2.258 2.258 0 0 1-4.516 0 2.258 2.258 0 1 1 4.516 0z" fill="url(#d)" transform="matrix(3.5433 0 0 3.5433 .004 0)"/>
    <path d="M22.131 29.204c-.69-.319-.942-1.173-.974-2.066-.021-.662.007-.815.135.124.124.91.967 1.914 1.771 1.914 1.304 0 2.37-1.365 2.37-3.055 0-.414-.127-.627-.906-.662l-.907-.046.871-.103c1.014-.089.907-.762 1.02-1.867.082-.971.213-2.013.295-2.314.131-.5-.01-.578-1.577-.883-2.087-.407-3.129-.226-3.965.684-1.265 1.382-.361 3.235 1.595 3.27.907.015.97.054.51.298-1.208.638-2.976-.68-2.976-2.221 0-2.381 2.257-3.42 5.222-2.399 1.258.432 1.294.429 2.37-.191.844-.49 1.16-.56 1.38-.32.439.48-.164 1.103-1.245 1.29-.807.142-.92.26-1.041 1.067-.075.5-.071 1.495.007 2.211.276 1.389.457 1.315 1.644 1.364-1.12.18-1.538.854-1.73 1.57-.502 1.881-2.387 3.019-3.872 2.331z" fill="#1a1a1a" stroke-miterlimit="4.5" stroke="#1a1a1a" stroke-linecap="round" stroke-linejoin="round" stroke-width=".38622079"/>
  </g>
</svg>

<svg xmlns="http://www.w3.org/2000/svg" viewBox="0 0 48 48">
 <defs>
  <linearGradient id="linearGradient3764" x1="1" x2="47" gradientUnits="userSpaceOnUse" gradientTransform="matrix(0,-1,1,0,-1.5e-6,47.999998)">
   <stop style="stop-color:#0cbe82;stop-opacity:1"/>
   <stop offset="1" style="stop-color:#0dd18f;stop-opacity:1"/>
  </linearGradient>
  <radialGradient id="radialGradient4125" gradientUnits="userSpaceOnUse" cx="21" cy="8" r="15" gradientTransform="matrix(0.26340741,0,0,0.26340741,1.2417778,4.6660743)">
   <stop style="stop-color:#fe1058;stop-opacity:1"/>
   <stop offset="1" style="stop-color:#fe4c82;stop-opacity:1"/>
  </radialGradient>
  <radialGradient id="radialGradient4122" gradientUnits="userSpaceOnUse" cx="14" cy="10" r="15.535" gradientTransform="matrix(0.24120755,-0.10238654,0.10238654,0.24120755,2.3725625,5.7946693)">
   <stop style="stop-color:#ffabcb;stop-opacity:1"/>
   <stop offset="1" style="stop-color:#ff619c;stop-opacity:1"/>
  </radialGradient>
  <radialGradient id="radialGradient4204-6" cx="24.5" cy="24.5" r="3.5" gradientUnits="userSpaceOnUse" gradientTransform="matrix(0.64507938,0,0,0.64507938,-9.0311114,-9.0311115)">
   <stop style="stop-color:#f0e598;stop-opacity:1"/>
   <stop offset="1" style="stop-color:#fce11a;stop-opacity:1"/>
  </radialGradient>
 </defs>
 <g>
  <path d="m 36.31 5 c 5.859 4.062 9.688 10.831 9.688 18.5 c 0 12.426 -10.07 22.5 -22.5 22.5 c -7.669 0 -14.438 -3.828 -18.5 -9.688 c 1.037 1.822 2.306 3.499 3.781 4.969 c 4.085 3.712 9.514 5.969 15.469 5.969 c 12.703 0 23 -10.298 23 -23 c 0 -5.954 -2.256 -11.384 -5.969 -15.469 c -1.469 -1.475 -3.147 -2.744 -4.969 -3.781 z m 4.969 3.781 c 3.854 4.113 6.219 9.637 6.219 15.719 c 0 12.703 -10.297 23 -23 23 c -6.081 0 -11.606 -2.364 -15.719 -6.219 c 4.16 4.144 9.883 6.719 16.219 6.719 c 12.703 0 23 -10.298 23 -23 c 0 -6.335 -2.575 -12.06 -6.719 -16.219 z" style="opacity:0.05"/>
  <path d="m 41.28 8.781 c 3.712 4.085 5.969 9.514 5.969 15.469 c 0 12.703 -10.297 23 -23 23 c -5.954 0 -11.384 -2.256 -15.469 -5.969 c 4.113 3.854 9.637 6.219 15.719 6.219 c 12.703 0 23 -10.298 23 -23 c 0 -6.081 -2.364 -11.606 -6.219 -15.719 z" style="opacity:0.1"/>
  <path d="m 31.25 2.375 c 8.615 3.154 14.75 11.417 14.75 21.13 c 0 12.426 -10.07 22.5 -22.5 22.5 c -9.708 0 -17.971 -6.135 -21.12 -14.75 a 23 23 0 0 0 44.875 -7 a 23 23 0 0 0 -16 -21.875 z" style="opacity:0.2"/>
 </g>
 <g>
  <path d="m 24 1 c 12.703 0 23 10.297 23 23 c 0 12.703 -10.297 23 -23 23 -12.703 0 -23 -10.297 -23 -23 0 -12.703 10.297 -23 23 -23 z" style="fill:url(#linearGradient3764);fill-opacity:1"/>
 </g>
 <g>
  <path d="m 40.03 7.531 c 3.712 4.084 5.969 9.514 5.969 15.469 0 12.703 -10.297 23 -23 23 c -5.954 0 -11.384 -2.256 -15.469 -5.969 4.178 4.291 10.01 6.969 16.469 6.969 c 12.703 0 23 -10.298 23 -23 0 -6.462 -2.677 -12.291 -6.969 -16.469 z" style="opacity:0.1"/>
 </g>
 <path d="m 25 10 -2.094 4.906 -3.906 -3.906 l 0.281 5 -5.281 -2 2 5.281 -5 -0.281 3.875 3.875 -4.875 2.063 4.906 2.156 -3.906 3.906 5 -0.281 -2 5.281 l 5.281 -2 l -0.281 5 3.906 -3.906 2.094 4.906 2.063 -4.781 3.531 3.781 -0.063 -5.063 5.469 2.062 -2 -5.281 5 0.281 -3.875 -3.875 4.875 -2.063 -4.906 -2.156 3.906 -3.906 -5 0.281 l 2 -5.281 -5.281 2 0.281 -5 -3.906 3.906 -2.094 -4.906" style="fill:#000;fill-opacity:0.098;stroke:none;fill-rule:nonzero"/>
 <g transform="matrix(3.543307,0,0,3.543307,0.00354353,-9.9999994e-8)">
  <path d="M 8.354,10.724 6.774,9.031 5.081,10.724 5.222,8.325 2.823,8.466 4.516,6.773 2.823,5.08 5.222,5.221 5.081,2.822 6.774,4.515 8.467,2.822 8.326,5.221 10.725,5.08 9.032,6.773 10.725,8.466 8.326,8.325 Z" style="fill:url(#radialGradient4125);fill-opacity:1;stroke:none;fill-rule:nonzero"/>
  <g>
   <path d="M 7.479,3.81 6.773,4.516 6.464,4.207 6.208,4.798 5.441,4.516 5.176,4.41 5.22,5.221 4.409,5.177 4.515,5.442 4.797,6.209 4.197,6.456 4.514,6.773 3.817,7.47 4.205,7.646 4.796,7.902 4.628,8.361 5.219,8.326 5.14,9.711 5.44,9.596 6.207,9.314 6.295,9.508 6.771,9.032 7.626,9.949 7.635,9.94 7.9,9.314 8.332,9.473 8.323,8.326 9.496,8.397 9.311,7.903 9.911,7.656 9.029,6.774 9.505,6.298 9.311,6.21 9.593,5.443 9.708,5.143 8.323,5.222 8.358,4.631 7.899,4.799 7.643,4.208 7.475,3.811 Z" style="fill:#000;fill-opacity:0.098;stroke:none;fill-rule:nonzero"/>
   <path d="M 9.878,9.878 7.62,9.031 6.773,11.007 5.926,9.031 3.668,9.878 4.515,7.62 2.539,6.759 4.515,5.927 3.668,3.669 5.926,4.516 6.773,2.54 7.62,4.516 9.878,3.669 9.031,5.927 11.007,6.788 9.031,7.62 Z" style="fill:url(#radialGradient4122);fill-opacity:1;stroke:none;fill-rule:nonzero"/>
   <path d="m 9.172 6.914 a 2.258 2.258 0 0 1 -4.516 0 2.258 2.258 0 1 1 4.516 0 z" style="fill:#000;fill-opacity:0.098;stroke:none;fill-rule:nonzero"/>
   <path d="m 9.03 6.773 a 2.258 2.258 0 0 1 -4.516 0 2.258 2.258 0 1 1 4.516 0 z" style="fill:url(#radialGradient4204-6);fill-opacity:1;stroke:none;fill-rule:nonzero"/>
   <path d="M 6.245,8.242 C 6.05,8.152 5.979,7.911 5.97,7.659 5.964,7.472 5.972,7.429 6.008,7.694 c 0.035,0.257 0.273,0.54 0.5,0.54 0.368,0 0.669,-0.385 0.669,-0.862 0,-0.117 -0.036,-0.177 -0.256,-0.187 L 6.665,7.172 6.911,7.143 C 7.197,7.118 7.167,6.928 7.199,6.616 7.222,6.342 7.259,6.048 7.282,5.963 7.319,5.822 7.279,5.8 6.837,5.714 6.248,5.599 5.954,5.65 5.718,5.907 5.361,6.297 5.616,6.82 6.168,6.83 6.424,6.834 6.442,6.845 6.312,6.914 5.971,7.094 5.472,6.722 5.472,6.287 5.472,5.615 6.109,5.322 6.946,5.61 7.301,5.732 7.311,5.731 7.615,5.556 7.853,5.418 7.942,5.398 8.004,5.466 8.128,5.601 7.958,5.777 7.653,5.83 7.425,5.87 7.393,5.903 7.359,6.131 7.338,6.272 7.339,6.553 7.361,6.755 7.439,7.147 7.49,7.126 7.825,7.14 7.509,7.191 7.391,7.381 7.337,7.583 7.195,8.114 6.663,8.435 6.244,8.241 Z" style="stroke-dasharray:none;stroke-opacity:1;fill:#1a1a1a;stroke-miterlimit:4.5;stroke:#1a1a1a;stroke-linecap:round;stroke-linejoin:round;stroke-width:0.109"/>
  </g>
 </g>
</svg>
